svgs/light/prescription-bottle.svg

<svg xmlns="http://www.w3.org/2000/svg" viewBox="0 0 384 512"><!--! Font Awesome Pro 6.6.0 by @fontawesome - https://fontawesome.com License - https://fontawesome.com/license (Commercial License) Copyright 2024 Fonticons, Inc. --><path d="M336 32c8.8 0 16 7.2 16 16l0 32c0 8.8-7.2 16-16 16L48 96c-8.8 0-16-7.2-16-16l0-32c0-8.8 7.2-16 16-16l288 0zM48 0C21.5 0 0 21.5 0 48L0 80c0 26.5 21.5 48 48 48l288 0c26.5 0 48-21.5 48-48l0-32c0-26.5-21.5-48-48-48L48 0zM32 160l0 288c0 35.3 28.7 64 64 64l192 0c35.3 0 64-28.7 64-64l0-288-32 0 0 288c0 17.7-14.3 32-32 32L96 480c-17.7 0-32-14.3-32-32l0-32 80 0c8.8 0 16-7.2 16-16s-7.2-16-16-16l-80 0 0-64 80 0c8.8 0 16-7.2 16-16s-7.2-16-16-16l-80 0 0-64 80 0c8.8 0 16-7.2 16-16s-7.2-16-16-16l-80 0 0-32-32 0z"/></svg>

<svg xmlns="http://www.w3.org/2000/svg" viewBox="0 0 384 512"><!--! Font Awesome Pro 6.4.2 by @fontawesome - https://fontawesome.com License - https://fontawesome.com/license (Commercial License) Copyright 2023 Fonticons, Inc. --><path d="M336 32c8.8 0 16 7.2 16 16V80c0 8.8-7.2 16-16 16H48c-8.8 0-16-7.2-16-16V48c0-8.8 7.2-16 16-16H336zM48 0C21.5 0 0 21.5 0 48V80c0 26.5 21.5 48 48 48H336c26.5 0 48-21.5 48-48V48c0-26.5-21.5-48-48-48H48zM32 160V448c0 35.3 28.7 64 64 64H288c35.3 0 64-28.7 64-64V160H320V448c0 17.7-14.3 32-32 32H96c-17.7 0-32-14.3-32-32V416h80c8.8 0 16-7.2 16-16s-7.2-16-16-16H64V320h80c8.8 0 16-7.2 16-16s-7.2-16-16-16H64V224h80c8.8 0 16-7.2 16-16s-7.2-16-16-16H64V160H32z"/></svg>
